packages/icons/general/WalletSetting.svg

<svg width="24" height="24" viewBox="0 0 24 24" xmlns="http://www.w3.org/2000/svg">
    <g>
        <path
            d="M18.4604 9.27869L14.8394 3.00525C14.5796 2.55603 14.0972 2.27869 13.5796 2.27869H6.42139C5.85303 2.27869 5.32178 2.58533 5.03857 3.07751L1.45654 9.27869C1.19678 9.72791 1.19678 10.2845 1.45654 10.7318L5.07764 17.0033C5.3374 17.4525 5.81787 17.7299 6.3374 17.7299H13.5796C14.0972 17.7299 14.5796 17.4506 14.8394 17.0033L18.4604 10.7318C18.7183 10.2826 18.7183 9.72595 18.4604 9.27869ZM17.2749 10.0482L13.6538 16.3197C13.6382 16.347 13.6089 16.3627 13.5796 16.3627H6.3374C6.30615 16.3627 6.27881 16.347 6.26318 16.3197L2.64209 10.0482C2.62646 10.0209 2.62646 9.98767 2.64209 9.96228L6.22217 3.76306C6.26318 3.69275 6.33936 3.64783 6.42139 3.64783H13.5796C13.6108 3.64783 13.6382 3.66345 13.6538 3.6908L17.2749 9.96228C17.2905 9.98767 17.2905 10.0209 17.2749 10.0482Z"
            fill="currentColor"
        />
        <path
            d="M9.95898 7.03943C8.32422 7.03943 6.99414 8.36951 6.99414 10.0043C6.99414 11.639 8.32422 12.9691 9.95898 12.9691C11.5937 12.9691 12.9238 11.641 12.9238 10.0062C12.9238 8.37146 11.5937 7.03943 9.95898 7.03943ZM9.95898 11.6039C9.07812 11.6039 8.36133 10.8871 8.36133 10.0062C8.36133 9.12537 9.07812 8.40857 9.95898 8.40857C10.8398 8.40857 11.5566 9.12537 11.5566 10.0062C11.5566 10.8871 10.8398 11.6039 9.95898 11.6039Z"
            fill="currentColor"
        />
    </g>
</svg>

<svg xmlns="http://www.w3.org/2000/svg" viewBox="0 0 24 24">
    <g fill="currentColor">
        <path d="m18.46 9.279-3.62-6.274a1.458 1.458 0 0 0-1.26-.726H6.42c-.568 0-1.1.306-1.382.799l-3.582 6.2c-.26.45-.26 1.006 0 1.454l3.62 6.271c.26.45.74.727 1.26.727h7.243c.517 0 1-.28 1.26-.727l3.62-6.271a1.461 1.461 0 0 0 0-1.453Zm-1.185.77-3.621 6.27a.086.086 0 0 1-.074.044H6.337a.084.084 0 0 1-.074-.043l-3.62-6.272a.085.085 0 0 1 0-.086l3.58-6.199a.232.232 0 0 1 .198-.115h7.159c.03 0 .058.015.074.043l3.62 6.271a.085.085 0 0 1 0 .086Z"/>
        <path d="M9.959 7.04a2.968 2.968 0 0 0-2.965 2.964A2.968 2.968 0 0 0 9.96 12.97a2.967 2.967 0 0 0 2.965-2.963A2.97 2.97 0 0 0 9.959 7.04Zm0 4.564a1.6 1.6 0 0 1-1.598-1.598A1.6 1.6 0 0 1 9.96 8.41a1.6 1.6 0 0 1 1.598 1.597 1.6 1.6 0 0 1-1.598 1.598Z"/>
    </g>
</svg>
